svgs/sharp-regular/camcorder.svg

<svg xmlns="http://www.w3.org/2000/svg" viewBox="0 0 576 512"><!--! Font Awesome Pro 6.6.0 by @fontawesome - https://fontawesome.com License - https://fontawesome.com/license (Commercial License) Copyright 2024 Fonticons, Inc. --><path d="M72 32L48 32l0 24 0 104L0 160l0 48L0 432l0 48 48 0 288 0 48 0 0-48 0-33.5 0-157 0-33.5 0-48-48 0L96 160l0-80 200 0 24 0 0-48-24 0L72 32zM48 208l288 0 0 224L48 432l0-224zM528 459.7L576 480l0-52.1 0-215.8 0-52.1-48 20.3L416 227.7l0 52.1 112-47.4 0 175.1L416 360.2l0 52.1 112 47.4zM80 240l0 48 24 0 176 0 24 0 0-48-24 0-176 0-24 0z"/></svg>

<svg xmlns="http://www.w3.org/2000/svg" viewBox="0 0 576 512"><!--! Font Awesome Pro 6.5.2 by @fontawesome - https://fontawesome.com License - https://fontawesome.com/license (Commercial License) Copyright 2024 Fonticons, Inc. --><path d="M72 32H48V56 160H0v48V432v48H48 336h48V432 398.5v-157V208 160H336 96V80H296h24V32H296 72zM48 208H336V432H48V208zM528 459.7L576 480V427.9 212.1 160l-48 20.3L416 227.7v52.1l112-47.4V407.6L416 360.2v52.1l112 47.4zM80 240v48h24H280h24V240H280 104 80z"/></svg>
